src/assets/images/oss/large/dojoToolkit.svg

<svg height="120" width="258.98" xmlns="http://www.w3.org/2000/svg"><g fill="#1f3d56"><path d="m66 30.34v38.83a29.7 29.7 0 0 1 -27.1 18.12c-17.1 0-28.72-14.6-28.72-29.2a28.65 28.65 0 0 1 28.72-28.61 29.12 29.12 0 0 1 18.62 6.52l1.73-10.86a39.82 39.82 0 0 0 -20.35-5.44c-15.9 0-35.36 9.56-38.47 32.86-.36 2.87-.72 3.38 0 11.57a28.72 28.72 0 0 0 1.23 5.47c6.14 19.48 23.82 27.4 37.24 27.4a39.44 39.44 0 0 0 27.1-10.94v8.85h12.2v-94.91h-12.2zm54.73-9.78c-15.87 0-36.3 9.42-38.46 32.86a54.29 54.29 0 0 0 0 11.58 35.36 35.36 0 0 0 1.22 5.46c6.14 19.54 23.82 27.39 37.24 27.39a38.84 38.84 0 0 0 39-38.89c.04-20.71-16.41-38.4-39-38.4zm0 67.59c-17.1 0-28.73-14.6-28.73-29.15a28.66 28.66 0 0 1 28.72-28.62 29.13 29.13 0 0 1 29.28 28.62c0 17.57-14.62 29.15-29.27 29.15zm15.88-77.87c.58-.65 1.23-.65 1.23-2.44 0-1.23-.65-1.23-.65-1.87h-31.76c-.57.64-1.22.64-1.22 1.87 0 1.79.65 1.79.65 2.44z" fill-rule="evenodd" transform="translate(-.02)"/><path d="m165.89 3.16h9.82v14.6h-9.82z"/><path d="m175.72 22.58h-9.72l.07 69.16a27.24 27.24 0 0 1 -11 19.42l6.35 8.84s15-16 14.36-27.61zm44.28-2.02c-15.88 0-36.3 9.42-38.47 32.86a55.67 55.67 0 0 0 0 11.58 35.53 35.53 0 0 0 1.23 5.46c6.1 19.54 23.78 27.39 37.24 27.39a38.85 38.85 0 0 0 39-38.85c0-20.75-16.45-38.44-39-38.44zm0 67.59c-17.1 0-28.72-14.6-28.72-29.19a28.65 28.65 0 0 1 28.72-28.62 29.13 29.13 0 0 1 29.26 28.66c0 17.57-14.65 29.15-29.26 29.15zm15.84-77.87c.57-.65 1.22-.65 1.22-2.44 0-1.23-.65-1.23-.65-1.87h-31.75c-.58.64-1.23.64-1.23 1.87 0 1.79.65 1.79.65 2.44z" fill-rule="evenodd" transform="translate(-.02)"/></g></svg>

<svg id="Layer_1" data-name="Layer 1" xmlns="http://www.w3.org/2000/svg" width="258.98" height="120"><defs><style>.cls-1{fill:#1f3d56;fill-rule:evenodd}</style></defs><path class="cls-1" d="M66 30.34v38.83a29.7 29.7 0 01-27.1 18.12c-17.1 0-28.72-14.6-28.72-29.2A28.65 28.65 0 0138.9 29.48 29.12 29.12 0 0157.52 36l1.73-10.86A39.82 39.82 0 0038.9 19.7C23 19.7 3.54 29.26.43 52.56c-.36 2.87-.72 3.38 0 11.57a28.72 28.72 0 001.23 5.47C7.8 89.08 25.48 97 38.9 97A39.44 39.44 0 0066 86.06v8.85h12.2V0H66zM120.73 20.56c-15.87 0-36.3 9.42-38.46 32.86a54.29 54.29 0 000 11.58 35.36 35.36 0 001.22 5.46c6.14 19.54 23.82 27.39 37.24 27.39a38.84 38.84 0 0039-38.89c.04-20.71-16.41-38.4-39-38.4zm0 67.59C103.63 88.15 92 73.55 92 59a28.66 28.66 0 0128.72-28.62A29.13 29.13 0 01150 59c0 17.57-14.62 29.15-29.27 29.15zM136.61 10.28c.58-.65 1.23-.65 1.23-2.44 0-1.23-.65-1.23-.65-1.87h-31.76c-.57.64-1.22.64-1.22 1.87 0 1.79.65 1.79.65 2.44z" transform="translate(-.02)"/><path fill="#1f3d56" d="M165.89 3.16h9.82v14.6h-9.82z"/><path class="cls-1" d="M175.72 22.58H166l.07 69.16a27.24 27.24 0 01-11 19.42l6.35 8.84s15-16 14.36-27.61zM220 20.56c-15.88 0-36.3 9.42-38.47 32.86a55.67 55.67 0 000 11.58 35.53 35.53 0 001.23 5.46C188.86 90 206.54 97.85 220 97.85A38.85 38.85 0 00259 59c0-20.75-16.45-38.44-39-38.44zm0 67.59c-17.1 0-28.72-14.6-28.72-29.19A28.65 28.65 0 01220 30.34 29.13 29.13 0 01249.26 59c0 17.57-14.65 29.15-29.26 29.15zM235.84 10.28c.57-.65 1.22-.65 1.22-2.44 0-1.23-.65-1.23-.65-1.87h-31.75c-.58.64-1.23.64-1.23 1.87 0 1.79.65 1.79.65 2.44z" transform="translate(-.02)"/></svg>
